images/Cyprus_road_sign_maximum_height.svg

<svg xmlns="http://www.w3.org/2000/svg" width="213.556" height="213.418"><path d="M0 0c7.465 0 13.608 6.117 13.608 13.582 0 7.49-6.143 13.61-13.608 13.61-7.491 0-13.61-6.12-13.61-13.61C-13.61 6.117-7.491 0 0 0" style="fill:#fff;fill-opacity:1;fill-rule:evenodd;stroke:none" transform="matrix(6.28013 0 0 -6.28013 106.769 192.088)"/><path d="M0 0c7.467 0 13.608 6.119 13.608 13.584 0 7.491-6.141 13.608-13.608 13.608-7.491 0-13.608-6.117-13.608-13.608C-13.608 6.119-7.491 0 0 0m0-3.394c9.356 0 17.004 7.648 17.004 16.978 0 9.359-7.648 17.005-17.004 17.005-9.354 0-17.001-7.646-17.001-17.005 0-9.33 7.647-16.978 17.001-16.978" style="fill:#ed1d24;fill-opacity:1;fill-rule:evenodd;stroke:none" transform="matrix(6.28013 0 0 -6.28013 106.769 192.103)"/><path style="fill:#000;fill-opacity:1;fill-rule:evenodd;stroke:none" d="M0 0c1.316.408 2.713.628 4.164.628 1.448 0 2.845-.22 4.16-.628l-4.16-4.161L0 0z" transform="matrix(6.1032 0 0 -6.1032 80.88 25.132)"/><path style="fill:#000;fill-opacity:1;fill-rule:evenodd;stroke:none" d="m0 0 4.164 4.162L8.325 0a14.055 14.055 0 0 0-4.161-.627C2.713-.627 1.316-.407 0 0" transform="matrix(6.1032 0 0 -6.1032 80.88 188.808)"/><path style="fill:#000;fill-opacity:1;fill-rule:nonzero;stroke:none" d="M0 0c.448-.205.742-.503.882-.893.142-.39.212-.828.212-1.315l-.019-1.536c0-1.062-.278-1.869-.835-2.419-.558-.551-1.303-.826-2.237-.826-1.089 0-1.869.298-2.342.893-.474.595-.679 1.437-.615 2.525l2.055.249c-.065-.64-.004-1.088.181-1.344a.89.89 0 0 1 .76-.384c.229 0 .444.08.643.241.198.159.297.457.297.892v1.805c0 .448-.102.768-.307.96-.206.192-.493.288-.864.288h-.576V.902h.672c.371 0 .653.09.845.269.192.179.288.48.288.903v1.478c0 .256-.058.499-.173.729-.115.231-.339.346-.672.346a.878.878 0 0 1-.758-.394c-.186-.262-.279-.7-.279-1.314l-2.035.268c.025 1.037.32 1.866.883 2.487.563.62 1.324.931 2.285.931.524 0 .966-.084 1.324-.25.359-.166.647-.387.864-.662.218-.275.375-.589.471-.941.096-.352.144-.707.144-1.066V2.63c0-.256-.009-.508-.029-.758a2.994 2.994 0 0 0-.135-.701A1.915 1.915 0 0 0 .605.567 1.774 1.774 0 0 0 0 .096V0z" transform="matrix(6.1032 0 0 -6.1032 76.067 100.362)"/><path style="fill:#000;fill-opacity:1;fill-rule:nonzero;stroke:none" d="M0 0h-.577l.279 1.258h-.249v1.209H.527v-1.18L0 0z" transform="matrix(6.1032 0 0 -6.1032 88.954 150.34)"/><path style="fill:#000;fill-opacity:1;fill-rule:nonzero;stroke:none" d="M0 0c0 .2-.046.382-.136.544-.091.163-.262.245-.512.245S-1.07.707-1.166.544A1.049 1.049 0 0 1-1.31 0v-1.893c0-.181.065-.329.194-.444a.684.684 0 0 1 .468-.172c.192 0 .348.057.469.172A.59.59 0 0 1 0-1.893V0zm0 4.028c0 .211-.05.389-.151.533-.101.144-.266.216-.497.216a.71.71 0 0 1-.461-.165.542.542 0 0 1-.201-.44V2.589a.55.55 0 0 1 .194-.44.703.703 0 0 1 .468-.166.67.67 0 0 1 .469.166c.119.11.179.257.179.44v1.439zm1.541-.863c0-.365-.053-.711-.159-1.038a1.25 1.25 0 0 0-.611-.734l.014-.014A1.47 1.47 0 0 0 1.214.99c.102-.144.177-.302.225-.475a2.85 2.85 0 0 0 .095-.569c.014-.207.022-.43.022-.67v-.863a3.08 3.08 0 0 0-.166-1.066 2.025 2.025 0 0 0-.463-.742 1.8 1.8 0 0 0-.693-.432 2.637 2.637 0 0 0-.86-.136c-.385 0-.717.057-.997.172a1.753 1.753 0 0 0-.686.49 2.07 2.07 0 0 0-.397.749c-.086.288-.13.6-.13.935v.721c0 .23.007.455.021.676.014.221.048.43.101.627a1.8 1.8 0 0 0 .238.533c.105.158.25.295.432.41a.946.946 0 0 0-.396.295c-.1.13-.18.269-.238.418a1.864 1.864 0 0 0-.114.446c-.02.149-.03.276-.03.382v1.152c0 .662.199 1.192.6 1.591.4.398.927.597 1.582.597.702 0 1.242-.199 1.617-.597.377-.399.564-.977.564-1.735v-.734z" transform="matrix(6.1032 0 0 -6.1032 114.03 118.65)"/><path style="fill:#000;fill-opacity:1;fill-rule:nonzero;stroke:none" d="M0 0c.24 0 .442-.038.606-.114.164-.076.296-.182.396-.318.1-.136.172-.296.216-.48.044-.184.065-.384.065-.6V-6H-.012v4.104c0 .208-.047.366-.139.474a.482.482 0 0 1-.383.162.543.543 0 0 1-.406-.168.664.664 0 0 1-.177-.456V-6h-1.295v4.104c0 .208-.046.366-.138.474a.47.47 0 0 1-.378.162.53.53 0 0 1-.408-.186c-.113-.124-.168-.294-.168-.51V-6H-4.8v5.94h1.296V-.6l.045-.012c.12.168.269.312.449.432.179.12.38.18.603.18.304 0 .546-.062.73-.186.183-.124.319-.29.407-.498.167.208.361.374.581.498C-.47-.062-.239 0 0 0" transform="matrix(6.1032 0 0 -6.1032 160.418 105.694)"/></svg>

<?xml version="1.0" encoding="UTF-8" standalone="no"?>
<!-- Created with Inkscape (http://www.inkscape.org/) -->

<svg
   xmlns:dc="http://purl.org/dc/elements/1.1/"
   xmlns:cc="http://creativecommons.org/ns#"
   xmlns:rdf="http://www.w3.org/1999/02/22-rdf-syntax-ns#"
   xmlns:svg="http://www.w3.org/2000/svg"
   xmlns="http://www.w3.org/2000/svg"
   xmlns:sodipodi="http://sodipodi.sourceforge.net/DTD/sodipodi-0.dtd"
   xmlns:inkscape="http://www.inkscape.org/namespaces/inkscape"
   width="213.55592"
   height="213.41776"
   id="svg4205"
   version="1.1"
   inkscape:version="0.47 r22583"
   sodipodi:docname="Cyprus road sign maximum large.svg">
  <defs
     id="defs4207">
    <inkscape:perspective
       sodipodi:type="inkscape:persp3d"
       inkscape:vp_x="0 : 526.18109 : 1"
       inkscape:vp_y="0 : 1000 : 0"
       inkscape:vp_z="744.09448 : 526.18109 : 1"
       inkscape:persp3d-origin="372.04724 : 350.78739 : 1"
       id="perspective4213" />
    <inkscape:perspective
       id="perspective4228"
       inkscape:persp3d-origin="106.21 : 70.796666 : 1"
       inkscape:vp_z="212.42 : 106.195 : 1"
       inkscape:vp_y="0 : 1000 : 0"
       inkscape:vp_x="0 : 106.195 : 1"
       sodipodi:type="inkscape:persp3d" />
    <clipPath
       id="clipPath16">
      <path
         inkscape:connector-curvature="0"
         d="M 0.059998,169.98 H 170 V 0.06 H 0.059998 v 169.92 z"
         id="path18" />
    </clipPath>
    <inkscape:perspective
       id="perspective4247"
       inkscape:persp3d-origin="0.5 : 0.33333333 : 1"
       inkscape:vp_z="1 : 0.5 : 1"
       inkscape:vp_y="0 : 1000 : 0"
       inkscape:vp_x="0 : 0.5 : 1"
       sodipodi:type="inkscape:persp3d" />
    <clipPath
       clipPathUnits="userSpaceOnUse"
       id="clipPath3426">
      <path
         d="m 43.076,488.976 34.845,0 0,34.015 -34.845,0 0,-34.015 z"
         id="path3428" />
    </clipPath>
    <inkscape:perspective
       id="perspective4323"
       inkscape:persp3d-origin="0.5 : 0.33333333 : 1"
       inkscape:vp_z="1 : 0.5 : 1"
       inkscape:vp_y="0 : 1000 : 0"
       inkscape:vp_x="0 : 0.5 : 1"
       sodipodi:type="inkscape:persp3d" />
    <clipPath
       clipPathUnits="userSpaceOnUse"
       id="clipPath2896">
      <path
         d="m 102.752,490.181 34.845,0 0,34.016 -34.845,0 0,-34.016 z"
         id="path2898" />
    </clipPath>
    <inkscape:perspective
       id="perspective5249"
       inkscape:persp3d-origin="0.5 : 0.33333333 : 1"
       inkscape:vp_z="1 : 0.5 : 1"
       inkscape:vp_y="0 : 1000 : 0"
       inkscape:vp_x="0 : 0.5 : 1"
       sodipodi:type="inkscape:persp3d" />
    <inkscape:perspective
       id="perspective5326"
       inkscape:persp3d-origin="0.5 : 0.33333333 : 1"
       inkscape:vp_z="1 : 0.5 : 1"
       inkscape:vp_y="0 : 1000 : 0"
       inkscape:vp_x="0 : 0.5 : 1"
       sodipodi:type="inkscape:persp3d" />
    <clipPath
       clipPathUnits="userSpaceOnUse"
       id="clipPath3128">
      <path
         d="m 164.704,490.181 34.845,0 0,34.016 -34.845,0 0,-34.016 z"
         id="path3130" />
    </clipPath>
    <inkscape:perspective
       id="perspective5450"
       inkscape:persp3d-origin="0.5 : 0.33333333 : 1"
       inkscape:vp_z="1 : 0.5 : 1"
       inkscape:vp_y="0 : 1000 : 0"
       inkscape:vp_x="0 : 0.5 : 1"
       sodipodi:type="inkscape:persp3d" />
    <clipPath
       clipPathUnits="userSpaceOnUse"
       id="clipPath3318">
      <path
         d="m 224.23,490.181 34.845,0 0,34.016 -34.845,0 0,-34.016 z"
         id="path3320" />
    </clipPath>
    <inkscape:perspective
       id="perspective5517"
       inkscape:persp3d-origin="0.5 : 0.33333333 : 1"
       inkscape:vp_z="1 : 0.5 : 1"
       inkscape:vp_y="0 : 1000 : 0"
       inkscape:vp_x="0 : 0.5 : 1"
       sodipodi:type="inkscape:persp3d" />
    <clipPath
       clipPathUnits="userSpaceOnUse"
       id="clipPath2936">
      <path
         d="m 43.087,413.859 34.845,0 0,34.016 -34.845,0 0,-34.016 z"
         id="path2938" />
    </clipPath>
    <inkscape:perspective
       id="perspective5617"
       inkscape:persp3d-origin="0.5 : 0.33333333 : 1"
       inkscape:vp_z="1 : 0.5 : 1"
       inkscape:vp_y="0 : 1000 : 0"
       inkscape:vp_x="0 : 0.5 : 1"
       sodipodi:type="inkscape:persp3d" />
    <clipPath
       clipPathUnits="userSpaceOnUse"
       id="clipPath3572">
      <path
         d="m 102.752,413.859 34.845,0 0,34.016 -34.845,0 0,-34.016 z"
         id="path3574" />
    </clipPath>
    <inkscape:perspective
       id="perspective5745"
       inkscape:persp3d-origin="0.5 : 0.33333333 : 1"
       inkscape:vp_z="1 : 0.5 : 1"
       inkscape:vp_y="0 : 1000 : 0"
       inkscape:vp_x="0 : 0.5 : 1"
       sodipodi:type="inkscape:persp3d" />
    <clipPath
       clipPathUnits="userSpaceOnUse"
       id="clipPath3694">
      <path
         d="m 164.704,413.859 34.845,0 0,34.016 -34.845,0 0,-34.016 z"
         id="path3696" />
    </clipPath>
    <inkscape:perspective
       id="perspective5843"
       inkscape:persp3d-origin="0.5 : 0.33333333 : 1"
       inkscape:vp_z="1 : 0.5 : 1"
       inkscape:vp_y="0 : 1000 : 0"
       inkscape:vp_x="0 : 0.5 : 1"
       sodipodi:type="inkscape:persp3d" />
    <clipPath
       clipPathUnits="userSpaceOnUse"
       id="clipPath3500">
      <path
         d="m 224.23,413.859 34.845,0 0,34.016 -34.845,0 0,-34.016 z"
         id="path3502" />
    </clipPath>
    <inkscape:perspective
       id="perspective6067"
       inkscape:persp3d-origin="0.5 : 0.33333333 : 1"
       inkscape:vp_z="1 : 0.5 : 1"
       inkscape:vp_y="0 : 1000 : 0"
       inkscape:vp_x="0 : 0.5 : 1"
       sodipodi:type="inkscape:persp3d" />
    <clipPath
       clipPathUnits="userSpaceOnUse"
       id="clipPath3162">
      <path
         d="m 43.076,323.15 34.845,0 0,34.016 -34.845,0 0,-34.016 z"
         id="path3164" />
    </clipPath>
    <inkscape:perspective
       id="perspective6134"
       inkscape:persp3d-origin="0.5 : 0.33333333 : 1"
       inkscape:vp_z="1 : 0.5 : 1"
       inkscape:vp_y="0 : 1000 : 0"
       inkscape:vp_x="0 : 0.5 : 1"
       sodipodi:type="inkscape:persp3d" />
    <clipPath
       clipPathUnits="userSpaceOnUse"
       id="clipPath3350">
      <path
         d="m 103.255,323.15 34.845,0 0,34.016 -34.845,0 0,-34.016 z"
         id="path3352" />
    </clipPath>
    <inkscape:perspective
       id="perspective6370"
       inkscape:persp3d-origin="0.5 : 0.33333333 : 1"
       inkscape:vp_z="1 : 0.5 : 1"
       inkscape:vp_y="0 : 1000 : 0"
       inkscape:vp_x="0 : 0.5 : 1"
       sodipodi:type="inkscape:persp3d" />
    <clipPath
       clipPathUnits="userSpaceOnUse"
       id="clipPath3262">
      <path
         d="m 164.704,323.15 34.845,0 0,34.016 -34.845,0 0,-34.016 z"
         id="path3264" />
    </clipPath>
    <clipPath
       clipPathUnits="userSpaceOnUse"
       id="clipPath3218">
      <path
         d="m 168.515,340.144 c 0,-7.465 6.12,-13.582 13.61,-13.582 l 0,0 c 7.465,0 13.608,6.117 13.608,13.582 l 0,0 c 0,7.491 -6.143,13.61 -13.608,13.61 l 0,0 c -7.49,0 -13.61,-6.119 -13.61,-13.61"
         id="path3220" />
    </clipPath>
    <clipPath
       clipPathUnits="userSpaceOnUse"
       id="clipPath3226">
      <path
         d="M 0,0 311,0 311,595 0,595 0,0 z"
         id="path3228" />
    </clipPath>
    <clipPath
       clipPathUnits="userSpaceOnUse"
       id="clipPath3194">
      <path
         d="m 164.704,323.15 34.845,0 0,34.016 -34.845,0 0,-34.016 z"
         id="path3196" />
    </clipPath>
    <inkscape:perspective
       id="perspective6674"
       inkscape:persp3d-origin="0.5 : 0.33333333 : 1"
       inkscape:vp_z="1 : 0.5 : 1"
       inkscape:vp_y="0 : 1000 : 0"
       inkscape:vp_x="0 : 0.5 : 1"
       sodipodi:type="inkscape:persp3d" />
    <clipPath
       clipPathUnits="userSpaceOnUse"
       id="clipPath3916">
      <path
         d="m 164.862,222.52 34.845,0 0,34.016 -34.845,0 0,-34.016 z"
         id="path3918" />
    </clipPath>
    <inkscape:perspective
       id="perspective6766"
       inkscape:persp3d-origin="0.5 : 0.33333333 : 1"
       inkscape:vp_z="1 : 0.5 : 1"
       inkscape:vp_y="0 : 1000 : 0"
       inkscape:vp_x="0 : 0.5 : 1"
       sodipodi:type="inkscape:persp3d" />
    <clipPath
       clipPathUnits="userSpaceOnUse"
       id="clipPath3944">
      <path
         d="m 224.739,222.52 34.845,0 0,34.016 -34.845,0 0,-34.016 z"
         id="path3946" />
    </clipPath>
  </defs>
  <sodipodi:namedview
     id="base"
     pagecolor="#ffffff"
     bordercolor="#666666"
     borderopacity="1.0"
     inkscape:pageopacity="0.0"
     inkscape:pageshadow="2"
     inkscape:zoom="2.362731"
     inkscape:cx="205.94799"
     inkscape:cy="98.004281"
     inkscape:document-units="px"
     inkscape:current-layer="layer1"
     showgrid="false"
     inkscape:window-width="1600"
     inkscape:window-height="838"
     inkscape:window-x="-8"
     inkscape:window-y="-8"
     inkscape:window-maximized="1" />
  <metadata
     id="metadata4210">
    <rdf:RDF>
      <cc:Work
         rdf:about="">
        <dc:format>image/svg+xml</dc:format>
        <dc:type
           rdf:resource="http://purl.org/dc/dcmitype/StillImage" />
        <dc:title></dc:title>
      </cc:Work>
    </rdf:RDF>
  </metadata>
  <g
     inkscape:label="Livello 1"
     inkscape:groupmode="layer"
     id="layer1"
     transform="translate(-175.27493,-427.37091)">
    <g
       id="g2940"
       transform="matrix(6.2801329,0,0,-6.2801329,282.04347,619.45882)">
      <path
         d="m 0,0 c 7.465,0 13.608,6.117 13.608,13.582 0,7.49 -6.143,13.61 -13.608,13.61 -7.491,0 -13.61,-6.12 -13.61,-13.61 C -13.61,6.117 -7.491,0 0,0"
         style="fill:#ffffff;fill-opacity:1;fill-rule:evenodd;stroke:none"
         id="path2942" />
    </g>
    <g
       id="g2944"
       transform="matrix(6.2801329,0,0,-6.2801329,282.04347,619.47389)">
      <path
         d="m 0,0 c 7.467,0 13.608,6.119 13.608,13.584 0,7.491 -6.141,13.608 -13.608,13.608 -7.491,0 -13.608,-6.117 -13.608,-13.608 C -13.608,6.119 -7.491,0 0,0 m 0,-3.394 c 9.356,0 17.004,7.648 17.004,16.978 0,9.359 -7.648,17.005 -17.004,17.005 -9.354,0 -17.001,-7.646 -17.001,-17.005 0,-9.33 7.647,-16.978 17.001,-16.978"
         style="fill:#ed1d24;fill-opacity:1;fill-rule:evenodd;stroke:none"
         id="path2946" />
    </g>
    <g
       id="g6860"
       transform="matrix(0.96983939,0,0,0.96983939,-217.86261,20.75213)">
      <g
         transform="matrix(6.2929984,0,0,-6.2929984,488.75855,445.1779)"
         id="g3948">
        <path
           id="path3950"
           style="fill:#000000;fill-opacity:1;fill-rule:evenodd;stroke:none"
           d="M 0,0 C 1.316,0.408 2.713,0.628 4.164,0.628 5.612,0.628 7.009,0.408 8.324,0 L 4.164,-4.161 0,0 z" />
      </g>
      <g
         transform="matrix(6.2929984,0,0,-6.2929984,488.75855,613.94416)"
         id="g3952">
        <path
           id="path3954"
           style="fill:#000000;fill-opacity:1;fill-rule:evenodd;stroke:none"
           d="M 0,0 4.164,4.162 8.325,0 C 7.01,-0.407 5.612,-0.627 4.164,-0.627 2.713,-0.627 1.316,-0.407 0,0" />
      </g>
      <g
         transform="matrix(6.2929984,0,0,-6.2929984,483.79583,522.74729)"
         id="g3960">
        <path
           id="path3962"
           style="fill:#000000;fill-opacity:1;fill-rule:nonzero;stroke:none"
           d="m 0,0 c 0.448,-0.205 0.742,-0.503 0.882,-0.893 0.142,-0.39 0.212,-0.828 0.212,-1.315 L 1.075,-3.744 c 0,-1.062 -0.278,-1.869 -0.835,-2.419 -0.558,-0.551 -1.303,-0.826 -2.237,-0.826 -1.089,0 -1.869,0.298 -2.342,0.893 -0.474,0.595 -0.679,1.437 -0.615,2.525 l 2.055,0.249 c -0.065,-0.64 -0.004,-1.088 0.181,-1.344 0.187,-0.256 0.439,-0.384 0.76,-0.384 0.229,0 0.444,0.08 0.643,0.241 0.198,0.159 0.297,0.457 0.297,0.892 l 0,1.805 c 0,0.448 -0.102,0.768 -0.307,0.96 -0.206,0.192 -0.493,0.288 -0.864,0.288 l -0.576,0 0,1.766 0.672,0 c 0.371,0 0.653,0.09 0.845,0.269 0.192,0.179 0.288,0.48 0.288,0.903 l 0,1.478 c 0,0.256 -0.058,0.499 -0.173,0.729 -0.115,0.231 -0.339,0.346 -0.672,0.346 -0.32,0 -0.573,-0.131 -0.758,-0.394 -0.186,-0.262 -0.279,-0.7 -0.279,-1.314 l -2.035,0.268 c 0.025,1.037 0.32,1.866 0.883,2.487 0.563,0.62 1.324,0.931 2.285,0.931 0.524,0 0.966,-0.084 1.324,-0.25 C -0.026,6.189 0.262,5.968 0.479,5.693 0.697,5.418 0.854,5.104 0.95,4.752 1.046,4.4 1.094,4.045 1.094,3.686 l 0,-1.056 C 1.094,2.374 1.085,2.122 1.065,1.872 1.046,1.623 1.001,1.389 0.93,1.171 0.86,0.953 0.751,0.752 0.605,0.567 0.457,0.381 0.255,0.224 0,0.096 L 0,0 z" />
      </g>
      <g
         transform="matrix(6.2929984,0,0,-6.2929984,497.08419,574.28002)"
         id="g3964">
        <path
           id="path3966"
           style="fill:#000000;fill-opacity:1;fill-rule:nonzero;stroke:none"
           d="m 0,0 -0.577,0 0.279,1.258 -0.249,0 0,1.209 1.074,0 0,-1.18 L 0,0 z" />
      </g>
      <g
         transform="matrix(6.2929984,0,0,-6.2929984,522.93897,541.60363)"
         id="g3968">
        <path
           id="path3970"
           style="fill:#000000;fill-opacity:1;fill-rule:nonzero;stroke:none"
           d="M 0,0 C 0,0.2 -0.046,0.382 -0.136,0.544 -0.227,0.707 -0.398,0.789 -0.648,0.789 -0.898,0.789 -1.07,0.707 -1.166,0.544 -1.262,0.382 -1.31,0.2 -1.31,0 l 0,-1.893 c 0,-0.181 0.065,-0.329 0.194,-0.444 0.131,-0.115 0.286,-0.172 0.468,-0.172 0.192,0 0.348,0.057 0.469,0.172 C -0.06,-2.222 0,-2.074 0,-1.893 L 0,0 z M 0,4.028 C 0,4.239 -0.05,4.417 -0.151,4.561 -0.252,4.705 -0.417,4.777 -0.648,4.777 -0.82,4.777 -0.974,4.722 -1.109,4.612 -1.243,4.501 -1.31,4.355 -1.31,4.172 l 0,-1.583 c 0,-0.183 0.065,-0.33 0.194,-0.44 0.131,-0.11 0.286,-0.166 0.468,-0.166 0.192,0 0.348,0.056 0.469,0.166 C -0.06,2.259 0,2.406 0,2.589 L 0,4.028 z M 1.541,3.165 C 1.541,2.8 1.488,2.454 1.382,2.127 1.275,1.801 1.071,1.556 0.771,1.393 L 0.785,1.379 C 0.969,1.264 1.112,1.134 1.214,0.99 1.316,0.846 1.391,0.688 1.439,0.515 1.488,0.342 1.519,0.152 1.534,-0.054 c 0.014,-0.207 0.022,-0.43 0.022,-0.67 l 0,-0.863 C 1.556,-2 1.5,-2.355 1.39,-2.653 1.279,-2.951 1.125,-3.198 0.927,-3.395 0.73,-3.592 0.499,-3.735 0.234,-3.827 c -0.266,-0.091 -0.552,-0.136 -0.86,-0.136 -0.385,0 -0.717,0.057 -0.997,0.172 -0.279,0.115 -0.507,0.278 -0.686,0.49 -0.178,0.211 -0.31,0.46 -0.397,0.749 -0.086,0.288 -0.13,0.6 -0.13,0.935 l 0,0.721 c 0,0.23 0.007,0.455 0.021,0.676 0.014,0.221 0.048,0.43 0.101,0.627 0.053,0.196 0.132,0.374 0.238,0.533 0.105,0.158 0.25,0.295 0.432,0.41 -0.164,0.067 -0.295,0.166 -0.396,0.295 -0.1,0.13 -0.18,0.269 -0.238,0.418 -0.057,0.148 -0.096,0.297 -0.114,0.446 -0.02,0.149 -0.03,0.276 -0.03,0.382 l 0,1.152 c 0,0.662 0.199,1.192 0.6,1.591 0.4,0.398 0.927,0.597 1.582,0.597 0.702,0 1.242,-0.199 1.617,-0.597 C 1.354,5.235 1.541,4.657 1.541,3.899 l 0,-0.734 z" />
      </g>
      <g
         transform="matrix(6.2929984,0,0,-6.2929984,570.7701,528.24479)"
         id="g3972">
        <path
           id="path3974"
           style="fill:#000000;fill-opacity:1;fill-rule:nonzero;stroke:none"
           d="m 0,0 c 0.24,0 0.442,-0.038 0.606,-0.114 0.164,-0.076 0.296,-0.182 0.396,-0.318 0.1,-0.136 0.172,-0.296 0.216,-0.48 0.044,-0.184 0.065,-0.384 0.065,-0.6 l 0,-4.488 -1.295,0 0,4.104 c 0,0.208 -0.047,0.366 -0.139,0.474 -0.094,0.108 -0.222,0.162 -0.383,0.162 -0.162,0 -0.297,-0.056 -0.406,-0.168 -0.11,-0.112 -0.169,-0.264 -0.177,-0.456 l 0,-4.116 -1.295,0 0,4.104 c 0,0.208 -0.046,0.366 -0.138,0.474 -0.092,0.108 -0.218,0.162 -0.378,0.162 -0.16,0 -0.296,-0.062 -0.408,-0.186 -0.113,-0.124 -0.168,-0.294 -0.168,-0.51 l 0,-4.044 -1.296,0 0,5.94 1.296,0 0,-0.54 0.045,-0.012 c 0.12,0.168 0.269,0.312 0.449,0.432 0.179,0.12 0.38,0.18 0.603,0.18 0.304,0 0.546,-0.062 0.73,-0.186 0.183,-0.124 0.319,-0.29 0.407,-0.498 0.167,0.208 0.361,0.374 0.581,0.498 C -0.47,-0.062 -0.239,0 0,0" />
      </g>
    </g>
  </g>
</svg>
